icons/op-view-timeline-24.svg

<svg width="24" height="24" viewBox="0 0 24 24" fill="none" xmlns="http://www.w3.org/2000/svg">
<path d="M5.375 6H9.40625V7.7H5.375V6ZM7.1875 9.43333H18.5625V11.1333H7.1875V9.43333ZM12.4688 12.8667H15.5312V14.5667H12.4688V12.8667ZM5.65625 16.3H17.0312V18H5.65625V16.3ZM4 6H5.03125V18H4V6ZM18.9688 6H20V18H18.9688V6Z" fill="black"/>
</svg>

<svg xmlns="http://www.w3.org/2000/svg" width="24" height="24" viewBox="0 0 24 24"><path d="M5.375 6h4.031v1.7H5.375V6Zm1.813 3.433h11.374v1.7H7.188v-1.7Zm5.281 3.434h3.062v1.7h-3.062v-1.7ZM5.656 16.3h11.375V18H5.656v-1.7ZM4 6h1.031v12H4V6Zm14.969 0H20v12h-1.031V6Z"/></svg>
